X:1
T:Theodore. Ya.18
L:1/16
Q:1/4=100
M:2/4
I:linebreak $
K:G
V:1 treble 
V:1
 d4 | B2G2 c2e2 | e2d2 g4 |{a} g2fe d2c2 | c2B2 d4 | B2G2 c2e2 | e2d2 g4 | A2ce d2F2 | G4 :: %9
 B3c/B/ | A2D2 B3c/d/ |$ A2D2 B3c/B/ | A2D2 B3^c/d/ | A4 (^GA).A.A | (AB).B.B (d^c).c.c | %15
 (ed).d.d (ef).g.g | gfge ede^c |{c} d4 d4 |$ B2G2 c2e2 | e2d2 g4 |{a} g2fe d2c2 | c2B2 d4 | %22
 B2G2 c2e2 | e2d2 g4 | A2ce d2F2 | G4 :| %26
